X: 429
T: Reel de Montreal
M: C
L: 1/8
C:Composed after taking Advil headache pills
K:G
"G"g2 fe dcBA | GBDG B2 AG | "D"FADF AcBA | "G"GBDG Bdef |
"G"g2 fe dcBA | GBDG B2 AG | "D"FGAB cdef |1 "G"g2 gf g2 d2 :||2 "G"g2 gf g4|
K:D
|: "D"A2 FA d2 Ad | f2 df a2 ab | "A"a2 g2 e2 g2 | "D"b2 a2 f2 d2 |
"D"A2 FA d2 Ad | f2 df a2 ab | "A"a2 g2 e2 c2 |1 "D"d8 :|2 "D"d2 ^d2 e2 f2 ||



